vendor/shopware/storefront/Resources/app/storefront/dist/assets/icon/default/sidebar-open.svg

<svg xmlns="http://www.w3.org/2000/svg" width="24" height="24" viewBox="0 0 24 24">
  <path fill="#758CA3" fill-rule="evenodd" d="M9,2 L9,4 C9,4.55228475 8.55228475,5 8,5 C7.44771525,5 7,4.55228475 7,4 L7,2 L3,2 C2.44771525,2 2,2.44771525 2,3 L2,21 C2,21.5522847 2.44771525,22 3,22 L7,22 L7,20 C7,19.4477153 7.44771525,19 8,19 C8.55228475,19 9,19.4477153 9,20 L9,22 L21,22 C21.5522847,22 22,21.5522847 22,21 L22,3 C22,2.44771525 21.5522847,2 21,2 L9,2 Z M3,8.95550994e-16 L21,8.95550994e-16 C22.6568542,1.02790497e-15 24,1.34314575 24,3 L24,21 C24,22.6568542 22.6568542,24 21,24 L3,24 C1.34314575,24 2.02906125e-16,22.6568542 0,21 L0,3 C-2.02906125e-16,1.34314575 1.34314575,2.08071949e-15 3,8.95550994e-16 Z M13.2191496,16.3753234 L16.7193936,12.0000184 L13.2191496,7.62471346 C12.8741401,7.19345152 12.9440614,6.56415915 13.3753234,6.2191496 C13.8065853,5.87414005 14.4358777,5.94406143 14.7808872,6.37532336 L18.7808872,11.3753234 C19.0730621,11.740542 19.0730621,12.2594948 18.7808872,12.6247135 L14.7808872,17.6247135 C14.4358777,18.0559754 13.8065853,18.1258968 13.3753234,17.7808872 C12.9440614,17.4358777 12.8741401,16.8065853 13.2191496,16.3753234 Z M9,16 C9,16.5522847 8.55228475,17 8,17 C7.44771525,17 7,16.5522847 7,16 L7,14 C7,13.4477153 7.44771525,13 8,13 C8.55228475,13 9,13.4477153 9,14 L9,16 Z M9,10 C9,10.5522847 8.55228475,11 8,11 C7.44771525,11 7,10.5522847 7,10 L7,8 C7,7.44771525 7.44771525,7 8,7 C8.55228475,7 9,7.44771525 9,8 L9,10 Z"/>
</svg>

<svg xmlns="http://www.w3.org/2000/svg" width="24" height="24" viewBox="0 0 24 24"><path fill="#758CA3" fill-rule="evenodd" d="M9 2v2c0 .5523-.4477 1-1 1s-1-.4477-1-1V2H3c-.5523 0-1 .4477-1 1v18c0 .5523.4477 1 1 1h4v-2c0-.5523.4477-1 1-1s1 .4477 1 1v2h12c.5523 0 1-.4477 1-1V3c0-.5523-.4477-1-1-1H9zM3 0h18c1.6569 0 3 1.3431 3 3v18c0 1.6569-1.3431 3-3 3H3c-1.6569 0-3-1.3431-3-3V3c0-1.6569 1.3431-3 3-3zm10.2191 16.3753L16.7194 12 13.219 7.6247c-.345-.4312-.275-1.0605.1562-1.4056.4313-.345 1.0606-.275 1.4056.1562l4 5a1 1 0 0 1 0 1.2494l-4 5c-.345.4313-.9743.5012-1.4056.1562-.4312-.345-.5012-.9743-.1562-1.4056zM9 16c0 .5523-.4477 1-1 1s-1-.4477-1-1v-2c0-.5523.4477-1 1-1s1 .4477 1 1v2zm0-6c0 .5523-.4477 1-1 1s-1-.4477-1-1V8c0-.5523.4477-1 1-1s1 .4477 1 1v2z"/></svg>
